apps/24/wmtweaks.svg

<?xml version="1.0" encoding="UTF-8" standalone="no"?>
<!-- Created with Inkscape (http://www.inkscape.org/) -->

<svg
   xmlns:svg="http://www.w3.org/2000/svg"
   xmlns="http://www.w3.org/2000/svg"
   xmlns:xlink="http://www.w3.org/1999/xlink"
   version="1.0"
   width="24"
   height="24"
   id="svg2">
  <defs
     id="defs4">
    <linearGradient
       id="linearGradient5048">
      <stop
         id="stop5050"
         style="stop-color:black;stop-opacity:0"
         offset="0" />
      <stop
         id="stop5056"
         style="stop-color:black;stop-opacity:1"
         offset="0.5" />
      <stop
         id="stop5052"
         style="stop-color:black;stop-opacity:0"
         offset="1" />
    </linearGradient>
    <linearGradient
       x1="302.85715"
       y1="366.64789"
       x2="302.85715"
       y2="609.50507"
       id="linearGradient4383"
       xlink:href="#linearGradient5048"
       gradientUnits="userSpaceOnUse"
       gradientTransform="matrix(0.03279365,0,0,0.01647059,0.1474383,12.961094)" />
    <linearGradient
       id="linearGradient3690">
      <stop
         id="stop3692"
         style="stop-color:white;stop-opacity:1"
         offset="0" />
      <stop
         id="stop3694"
         style="stop-color:white;stop-opacity:0.46875"
         offset="1" />
    </linearGradient>
    <linearGradient
       x1="9.5"
       y1="16.26436"
       x2="9.5"
       y2="13.408723"
       id="linearGradient2476"
       xlink:href="#linearGradient3690"
       gradientUnits="userSpaceOnUse"
       gradientTransform="matrix(0.548387,0,0,0.551724,-1.7096763,-0.7413818)" />
    <linearGradient
       id="linearGradient3674">
      <stop
         id="stop3676"
         style="stop-color:#3465a4;stop-opacity:1"
         offset="0" />
      <stop
         id="stop3678"
         style="stop-color:#729fcf;stop-opacity:1"
         offset="1" />
    </linearGradient>
    <linearGradient
       x1="23.069359"
       y1="6.7993021"
       x2="23.069359"
       y2="12.403291"
       id="linearGradient2474"
       xlink:href="#linearGradient3674"
       gradientUnits="userSpaceOnUse"
       gradientTransform="matrix(0.5757569,0,0,0.5806455,-2.3939328,-1.435489)" />
    <linearGradient
       id="linearGradient2781">
      <stop
         id="stop2783"
         style="stop-color:#d3d7cf;stop-opacity:1"
         offset="0" />
      <stop
         id="stop2785"
         style="stop-color:#eeeeec;stop-opacity:1"
         offset="1" />
    </linearGradient>
    <linearGradient
       x1="24.925514"
       y1="40.000107"
       x2="24.925514"
       y2="19.53867"
       id="linearGradient2472"
       xlink:href="#linearGradient2781"
       gradientUnits="userSpaceOnUse"
       gradientTransform="matrix(0.5757569,0,0,0.5806455,-2.3939328,-1.435489)" />
    <linearGradient
       id="linearGradient3355">
      <stop
         id="stop3357"
         style="stop-color:#6f716c;stop-opacity:1"
         offset="0" />
      <stop
         id="stop3359"
         style="stop-color:#888a85;stop-opacity:0"
         offset="1" />
    </linearGradient>
    <linearGradient
       x1="38.045502"
       y1="44.886215"
       x2="33.233128"
       y2="51.470303"
       id="linearGradient2607"
       xlink:href="#linearGradient3355"
       gradientUnits="userSpaceOnUse"
       gradientTransform="matrix(0.3450748,-0.3450748,0.3450748,0.3450748,-8.8960866,15.615008)" />
    <linearGradient
       id="linearGradient3331">
      <stop
         id="stop3333"
         style="stop-color:#d3d7cf;stop-opacity:1"
         offset="0" />
      <stop
         id="stop3335"
         style="stop-color:#d3d7cf;stop-opacity:0"
         offset="1" />
    </linearGradient>
    <linearGradient
       x1="35.197689"
       y1="46.093544"
       x2="33.665684"
       y2="50.415848"
       id="linearGradient2605"
       xlink:href="#linearGradient3331"
       gradientUnits="userSpaceOnUse"
       gradientTransform="matrix(0.3450748,-0.3450748,0.3450748,0.3450748,-8.8960866,15.615008)" />
    <linearGradient
       id="linearGradient3315">
      <stop
         id="stop3317"
         style="stop-color:white;stop-opacity:1"
         offset="0" />
      <stop
         id="stop3319"
         style="stop-color:white;stop-opacity:0"
         offset="1" />
    </linearGradient>
    <linearGradient
       x1="33.358002"
       y1="37.386215"
       x2="33.358002"
       y2="52.806263"
       id="linearGradient2611"
       xlink:href="#linearGradient3315"
       gradientUnits="userSpaceOnUse"
       gradientTransform="matrix(0.3450748,-0.3450748,0.3450748,0.3450748,-8.8960866,15.615008)" />
    <linearGradient
       id="linearGradient3307">
      <stop
         id="stop3309"
         style="stop-color:#888a85;stop-opacity:1"
         offset="0" />
      <stop
         id="stop3311"
         style="stop-color:#888a85;stop-opacity:0"
         offset="1" />
    </linearGradient>
    <linearGradient
       x1="36.201752"
       y1="37.667465"
       x2="30.034962"
       y2="41.842426"
       id="linearGradient2599"
       xlink:href="#linearGradient3307"
       gradientUnits="userSpaceOnUse"
       gradientTransform="matrix(0.4880095,0,0,0.4880095,-17.331961,4.7509949)" />
  </defs>
  <g
     id="layer1">
    <rect
       width="15.834647"
       height="4"
       x="4.0826759"
       y="19"
       id="rect4173"
       style="opacity:0.23613156;fill:url(#linearGradient4383);fill-opacity:1;fill-rule:nonzero;stroke:none;stroke-width:1;marker:none;visibility:visible;display:inline;overflow:visible" />
    <g
       id="g2467">
      <rect
         width="18.999998"
         height="17.709679"
         rx="1.1515138"
         ry="1.161291"
         x="2.5000007"
         y="3.7903209"
         id="rect1887"
         style="fill:url(#linearGradient2472);fill-opacity:1;stroke:#888a85;stroke-width:1.00000024;stroke-miterlimit:4;stroke-opacity:1;stroke-dasharray:none" />
      <path
         d="m 2.5000002,6.7111613 0,-2.0498701 c 0,-0.6433553 0.5135752,-1.161291 1.1515138,-1.161291 l 16.69695,0 c 0.637939,0 1.151514,0.5179357 1.151514,1.161291 l 0,2.0498701"
         id="rect2776"
         style="fill:url(#linearGradient2474);fill-opacity:1;stroke:#204a87;stroke-width:1.0000006;stroke-miterlimit:4;stroke-opacity:1" />
      <rect
         width="16.999998"
         height="15.999999"
         rx="0.17766401"
         ry="0.17766401"
         x="3.5000005"
         y="4.5000005"
         id="rect2779"
         style="opacity:0.8;fill:none;stroke:url(#linearGradient2476);stroke-width:1.00000083;stroke-miterlimit:4;stroke-opacity:1;stroke-dasharray:none" />
    </g>
    <path
       d="m 13.666017,10.969557 c -0.313946,0.01883 -0.614895,0.07782 -0.915017,0.183004 l 2.180791,2.180791 -0.701513,1.387777 -1.387777,0.686263 -2.180791,-2.165541 c -0.427269,1.203451 -0.154339,2.590713 0.808265,3.553317 0.962605,0.962605 2.349864,1.220284 3.553318,0.793016 l 0.808265,0.808265 3.980326,0 c 0.05049,0 0.103363,-0.0105 0.152503,-0.01525 l -2.867055,-2.867055 c 0.420746,-1.200493 0.150876,-2.594177 -0.808265,-3.553318 -0.719356,-0.719355 -1.681211,-1.047768 -2.62305,-0.991269 z"
       id="path6270"
       style="opacity:0.2;fill:black;fill-opacity:1;fill-rule:nonzero;stroke:black;stroke-width:1.00000036;stroke-linecap:round;stroke-linejoin:round;stroke-miterlimit:4;stroke-opacity:1;stroke-dasharray:none;stroke-dashoffset:1.4;marker:none;visibility:visible;display:inline;overflow:visible" />
    <path
       d="m 10.665341,12.746574 c -0.427268,1.203451 -0.164619,2.595979 0.797986,3.558584 0.962605,0.962605 2.35513,1.225254 3.558583,0.797985 L 21.418768,23.5 23.5,21.418768 17.103143,15.021911 c 0.420745,-1.200493 0.150372,-2.58866 -0.808769,-3.547801 -0.95914,-0.95914 -2.34731,-1.229514 -3.5478,-0.808769 l 2.178284,2.178285 -0.695541,1.385691 -1.385691,0.695541 -2.178285,-2.178284 z"
       id="path3193"
       style="fill:url(#linearGradient2605);fill-opacity:1;fill-rule:nonzero;stroke:url(#linearGradient2607);stroke-width:1.00000036;stroke-linecap:round;stroke-linejoin:round;stroke-miterlimit:4;stroke-opacity:1;stroke-dasharray:none;stroke-dashoffset:1.4;marker:none;visibility:visible;display:inline;overflow:visible" />
    <path
       d="m 13.84375,11.0625 1.4375,1.4375 c 0.146394,0.148894 0.15737,0.376489 0.0625,0.5625 l -0.6875,1.375 c -0.04684,0.0932 -0.12555,0.171906 -0.21875,0.21875 l -1.375,0.6875 c -0.186011,0.09487 -0.413606,0.08389 -0.5625,-0.0625 l -1.4375,-1.4375 c -0.01813,0.769234 0.160632,1.535631 0.75,2.125 0.828353,0.828353 2.029356,1.023053 3.0625,0.65625 0.177652,-0.06207 0.368344,-0.0095 0.5,0.125 l 6.53125,6.53125 1.375,-1.375 L 16.75,15.375 c -0.134459,-0.131656 -0.187068,-0.322348 -0.125,-0.5 0.360664,-1.029062 0.138344,-2.236655 -0.6875,-3.0625 -0.585867,-0.585867 -1.329034,-0.762385 -2.09375,-0.75 z"
       id="path2609"
       style="opacity:0.6;fill:none;stroke:url(#linearGradient2611);stroke-width:1.00000036;stroke-linecap:round;stroke-linejoin:miter;stroke-miterlimit:4;stroke-opacity:1;stroke-dashoffset:1.4;marker:none;visibility:visible;display:inline;overflow:visible" />
    <rect
       width="0.97602332"
       height="7.3201494"
       rx="0.48801166"
       ry="0.48801166"
       x="-0.49563104"
       y="23.051342"
       transform="matrix(0.7071068,-0.7071068,0.7071068,0.7071068,0,0)"
       id="rect3197"
       style="opacity:0.4;fill:none;stroke:url(#linearGradient2599);stroke-width:1.00000012;stroke-linecap:round;stroke-linejoin:miter;stroke-miterlimit:4;stroke-opacity:1;stroke-dasharray:none;stroke-dashoffset:1.4;marker:none;visibility:visible;display:inline;overflow:visible" />
  </g>
</svg>

<?xml version="1.0" encoding="UTF-8" standalone="no"?>
<!-- Created with Inkscape (http://www.inkscape.org/) -->
<svg
   xmlns:dc="http://purl.org/dc/elements/1.1/"
   xmlns:cc="http://creativecommons.org/ns#"
   xmlns:rdf="http://www.w3.org/1999/02/22-rdf-syntax-ns#"
   xmlns:svg="http://www.w3.org/2000/svg"
   xmlns="http://www.w3.org/2000/svg"
   xmlns:xlink="http://www.w3.org/1999/xlink"
   xmlns:sodipodi="http://sodipodi.sourceforge.net/DTD/sodipodi-0.dtd"
   xmlns:inkscape="http://www.inkscape.org/namespaces/inkscape"
   width="24"
   height="24"
   id="svg2"
   sodipodi:version="0.32"
   inkscape:version="0.46"
   version="1.0"
   sodipodi:docname="wmtweaks.svg"
   inkscape:output_extension="org.inkscape.output.svg.inkscape">
  <defs
     id="defs4">
    <linearGradient
       id="linearGradient5048">
      <stop
         id="stop5050"
         offset="0"
         style="stop-color:black;stop-opacity:0;" />
      <stop
         style="stop-color:black;stop-opacity:1;"
         offset="0.5"
         id="stop5056" />
      <stop
         id="stop5052"
         offset="1"
         style="stop-color:black;stop-opacity:0;" />
    </linearGradient>
    <linearGradient
       inkscape:collect="always"
       xlink:href="#linearGradient5048"
       id="linearGradient4383"
       gradientUnits="userSpaceOnUse"
       gradientTransform="matrix(3.2793649e-2,0,0,1.6470588e-2,0.1474383,12.961094)"
       x1="302.85715"
       y1="366.64789"
       x2="302.85715"
       y2="609.50507" />
    <linearGradient
       id="linearGradient3690">
      <stop
         style="stop-color:white;stop-opacity:1;"
         offset="0"
         id="stop3692" />
      <stop
         style="stop-color:white;stop-opacity:0.46875"
         offset="1"
         id="stop3694" />
    </linearGradient>
    <linearGradient
       inkscape:collect="always"
       xlink:href="#linearGradient3690"
       id="linearGradient2476"
       gradientUnits="userSpaceOnUse"
       gradientTransform="matrix(0.548387,0,0,0.551724,-1.7096763,-0.7413818)"
       x1="9.5"
       y1="16.26436"
       x2="9.5"
       y2="13.408723" />
    <linearGradient
       id="linearGradient3674">
      <stop
         style="stop-color:#3465a4;stop-opacity:1"
         offset="0"
         id="stop3676" />
      <stop
         style="stop-color:#729fcf;stop-opacity:1;"
         offset="1"
         id="stop3678" />
    </linearGradient>
    <linearGradient
       inkscape:collect="always"
       xlink:href="#linearGradient3674"
       id="linearGradient2474"
       gradientUnits="userSpaceOnUse"
       gradientTransform="matrix(0.5757569,0,0,0.5806455,-2.3939328,-1.435489)"
       x1="23.069359"
       y1="6.7993021"
       x2="23.069359"
       y2="12.403291" />
    <linearGradient
       id="linearGradient2781">
      <stop
         style="stop-color:#d3d7cf;stop-opacity:1"
         offset="0"
         id="stop2783" />
      <stop
         style="stop-color:#eeeeec;stop-opacity:1"
         offset="1"
         id="stop2785" />
    </linearGradient>
    <linearGradient
       inkscape:collect="always"
       xlink:href="#linearGradient2781"
       id="linearGradient2472"
       gradientUnits="userSpaceOnUse"
       gradientTransform="matrix(0.5757569,0,0,0.5806455,-2.3939328,-1.435489)"
       x1="24.925514"
       y1="40.000107"
       x2="24.925514"
       y2="19.53867" />
    <linearGradient
       id="linearGradient3355">
      <stop
         style="stop-color:#6f716c;stop-opacity:1;"
         offset="0"
         id="stop3357" />
      <stop
         style="stop-color:#888a85;stop-opacity:0;"
         offset="1"
         id="stop3359" />
    </linearGradient>
    <linearGradient
       inkscape:collect="always"
       xlink:href="#linearGradient3355"
       id="linearGradient2607"
       gradientUnits="userSpaceOnUse"
       x1="38.045502"
       y1="44.886215"
       x2="33.233128"
       y2="51.470303"
       gradientTransform="matrix(0.3450748,-0.3450748,0.3450748,0.3450748,-8.8960866,15.615008)" />
    <linearGradient
       id="linearGradient3331"
       inkscape:collect="always">
      <stop
         id="stop3333"
         offset="0"
         style="stop-color:#d3d7cf;stop-opacity:1;" />
      <stop
         id="stop3335"
         offset="1"
         style="stop-color:#d3d7cf;stop-opacity:0;" />
    </linearGradient>
    <linearGradient
       inkscape:collect="always"
       xlink:href="#linearGradient3331"
       id="linearGradient2605"
       gradientUnits="userSpaceOnUse"
       x1="35.197689"
       y1="46.093544"
       x2="33.665684"
       y2="50.415848"
       gradientTransform="matrix(0.3450748,-0.3450748,0.3450748,0.3450748,-8.8960866,15.615008)" />
    <linearGradient
       id="linearGradient3315"
       inkscape:collect="always">
      <stop
         id="stop3317"
         offset="0"
         style="stop-color:white;stop-opacity:1;" />
      <stop
         id="stop3319"
         offset="1"
         style="stop-color:white;stop-opacity:0;" />
    </linearGradient>
    <linearGradient
       inkscape:collect="always"
       xlink:href="#linearGradient3315"
       id="linearGradient2611"
       gradientUnits="userSpaceOnUse"
       gradientTransform="matrix(0.3450748,-0.3450748,0.3450748,0.3450748,-8.8960866,15.615008)"
       x1="33.358002"
       y1="37.386215"
       x2="33.358002"
       y2="52.806263" />
    <linearGradient
       id="linearGradient3307"
       inkscape:collect="always">
      <stop
         id="stop3309"
         offset="0"
         style="stop-color:#888a85;stop-opacity:1;" />
      <stop
         id="stop3311"
         offset="1"
         style="stop-color:#888a85;stop-opacity:0;" />
    </linearGradient>
    <linearGradient
       inkscape:collect="always"
       xlink:href="#linearGradient3307"
       id="linearGradient2599"
       gradientUnits="userSpaceOnUse"
       x1="36.201752"
       y1="37.667465"
       x2="30.034962"
       y2="41.842426"
       gradientTransform="matrix(0.4880095,0,0,0.4880095,-17.331961,4.7509949)" />
  </defs>
  <sodipodi:namedview
     id="base"
     pagecolor="#ffffff"
     bordercolor="#666666"
     borderopacity="1.0"
     gridtolerance="10000"
     guidetolerance="10"
     objecttolerance="10"
     inkscape:pageopacity="0.0"
     inkscape:pageshadow="2"
     inkscape:zoom="10.375"
     inkscape:cx="12"
     inkscape:cy="12"
     inkscape:document-units="px"
     inkscape:current-layer="layer1"
     showgrid="false"
     inkscape:window-width="640"
     inkscape:window-height="720"
     inkscape:window-x="798"
     inkscape:window-y="24" />
  <metadata
     id="metadata7">
    <rdf:RDF>
      <cc:Work
         rdf:about="">
        <dc:format>image/svg+xml</dc:format>
        <dc:type
           rdf:resource="http://purl.org/dc/dcmitype/StillImage" />
      </cc:Work>
    </rdf:RDF>
  </metadata>
  <g
     inkscape:label="Layer 1"
     inkscape:groupmode="layer"
     id="layer1">
    <rect
       style="opacity:0.23613155999999999;fill:url(#linearGradient4383);fill-opacity:1;fill-rule:nonzero;stroke:none;stroke-width:1;stroke-linecap:round;stroke-linejoin:miter;marker:none;marker-start:none;marker-mid:none;marker-end:none;stroke-miterlimit:4;stroke-dasharray:none;stroke-dashoffset:0;stroke-opacity:1;visibility:visible;display:inline;overflow:visible"
       id="rect4173"
       width="15.834647"
       height="4"
       x="4.0826759"
       y="19" />
    <g
       id="g2467">
      <rect
         ry="1.161291"
         rx="1.1515138"
         y="3.7903209"
         x="2.5000007"
         height="17.709679"
         width="18.999998"
         id="rect1887"
         style="fill:url(#linearGradient2472);fill-opacity:1;stroke:#888a85;stroke-width:1.00000024;stroke-miterlimit:4;stroke-dasharray:none;stroke-opacity:1" />
      <path
         sodipodi:nodetypes="cccccc"
         id="rect2776"
         d="M 2.5000002,6.7111613 L 2.5000002,4.6612912 C 2.5000002,4.0179359 3.0135754,3.5000002 3.651514,3.5000002 L 20.348464,3.5000002 C 20.986403,3.5000002 21.499978,4.0179359 21.499978,4.6612912 L 21.499978,6.7111613"
         style="fill:url(#linearGradient2474);fill-opacity:1;stroke:#204a87;stroke-width:1.0000006;stroke-miterlimit:4;stroke-opacity:1" />
      <rect
         ry="0.17766401"
         rx="0.17766401"
         y="4.5000005"
         x="3.5000005"
         height="15.999999"
         width="16.999998"
         id="rect2779"
         style="opacity:0.8;fill:none;fill-opacity:1;stroke:url(#linearGradient2476);stroke-width:1.00000083;stroke-miterlimit:4;stroke-dasharray:none;stroke-opacity:1" />
    </g>
    <path
       id="path6270"
       d="M 13.666017,10.969557 C 13.352071,10.988391 13.051122,11.047374 12.751,11.152561 L 14.931791,13.333352 L 14.230278,14.721129 L 12.842501,15.407392 L 10.66171,13.241851 C 10.234441,14.445302 10.507371,15.832564 11.469975,16.795168 C 12.43258,17.757773 13.819839,18.015452 15.023293,17.588184 L 15.831558,18.396449 L 19.811884,18.396449 C 19.862375,18.396449 19.915247,18.385946 19.964387,18.381199 L 17.097332,15.514144 C 17.518078,14.313651 17.248208,12.919967 16.289067,11.960826 C 15.569711,11.241471 14.607856,10.913058 13.666017,10.969557 z"
       style="opacity:0.20000000000000001;fill:#000000;fill-opacity:1;fill-rule:nonzero;stroke:#000000;stroke-width:1.00000036000000003;stroke-linecap:round;stroke-linejoin:round;marker:none;marker-start:none;marker-mid:none;marker-end:none;stroke-miterlimit:4;stroke-dasharray:none;stroke-dashoffset:1.39999999999999991;stroke-opacity:1;visibility:visible;display:inline;overflow:visible" />
    <path
       style="fill:url(#linearGradient2605);fill-opacity:1;fill-rule:nonzero;stroke:url(#linearGradient2607);stroke-width:1.00000036000000003;stroke-linecap:round;stroke-linejoin:round;marker:none;marker-start:none;marker-mid:none;marker-end:none;stroke-miterlimit:4;stroke-dasharray:none;stroke-dashoffset:1.39999999999999991;stroke-opacity:1;visibility:visible;display:inline;overflow:visible"
       d="M 10.665341,12.746574 C 10.238073,13.950025 10.500722,15.342553 11.463327,16.305158 C 12.425932,17.267763 13.818457,17.530412 15.02191,17.103143 L 21.418768,23.5 L 23.5,21.418768 L 17.103143,15.021911 C 17.523888,13.821418 17.253515,12.433251 16.294374,11.47411 C 15.335234,10.51497 13.947064,10.244596 12.746574,10.665341 L 14.924858,12.843626 L 14.229317,14.229317 L 12.843626,14.924858 L 10.665341,12.746574 z"
       id="path3193"
       sodipodi:nodetypes="csccccsccccc"
       inkscape:transform-center-y="4.25" />
    <path
       sodipodi:type="inkscape:offset"
       inkscape:radius="0"
       inkscape:original="M 13.84375 11.0625 L 15.28125 12.5 C 15.427644 12.648894 15.43862 12.876489 15.34375 13.0625 L 14.65625 14.4375 C 14.609405 14.5307 14.5307 14.609406 14.4375 14.65625 L 13.0625 15.34375 C 12.876489 15.43862 12.648894 15.427644 12.5 15.28125 L 11.0625 13.84375 C 11.044367 14.612984 11.223132 15.379381 11.8125 15.96875 C 12.640853 16.797103 13.841856 16.991803 14.875 16.625 C 15.052652 16.562933 15.243344 16.615541 15.375 16.75 L 21.90625 23.28125 L 23.28125 21.90625 L 16.75 15.375 C 16.615541 15.243344 16.562932 15.052652 16.625 14.875 C 16.985664 13.845938 16.763344 12.638345 15.9375 11.8125 C 15.351633 11.226633 14.608466 11.050115 13.84375 11.0625 z "
       style="fill:none;fill-opacity:1;fill-rule:nonzero;stroke:url(#linearGradient2611);stroke-width:1.00000036000000003;stroke-linecap:round;stroke-linejoin:miter;marker:none;marker-start:none;marker-mid:none;marker-end:none;stroke-miterlimit:4;stroke-dashoffset:1.39999999999999991;stroke-opacity:1;visibility:visible;display:inline;overflow:visible;opacity:0.59999999999999998"
       id="path2609"
       d="M 13.84375,11.0625 L 15.28125,12.5 C 15.427644,12.648894 15.43862,12.876489 15.34375,13.0625 L 14.65625,14.4375 C 14.609405,14.5307 14.5307,14.609406 14.4375,14.65625 L 13.0625,15.34375 C 12.876489,15.43862 12.648894,15.427644 12.5,15.28125 L 11.0625,13.84375 C 11.044367,14.612984 11.223132,15.379381 11.8125,15.96875 C 12.640853,16.797103 13.841856,16.991803 14.875,16.625 C 15.052652,16.562933 15.243344,16.615541 15.375,16.75 L 21.90625,23.28125 L 23.28125,21.90625 L 16.75,15.375 C 16.615541,15.243344 16.562932,15.052652 16.625,14.875 C 16.985664,13.845938 16.763344,12.638345 15.9375,11.8125 C 15.351633,11.226633 14.608466,11.050115 13.84375,11.0625 z" />
    <rect
       transform="matrix(0.7071068,-0.7071068,0.7071068,0.7071068,0,0)"
       style="opacity:0.40000000000000002;fill:none;fill-opacity:1;fill-rule:nonzero;stroke:url(#linearGradient2599);stroke-width:1.00000011999999994;stroke-linecap:round;stroke-linejoin:miter;marker:none;marker-start:none;marker-mid:none;marker-end:none;stroke-miterlimit:4;stroke-dasharray:none;stroke-dashoffset:1.39999999999999991;stroke-opacity:1;visibility:visible;display:inline;overflow:visible"
       id="rect3197"
       width="0.97602332"
       height="7.3201494"
       x="-0.49563104"
       y="23.051342"
       rx="0.48801166"
       ry="0.48801166" />
  </g>
</svg>
